X: 0
T: The Red Haired Boy
C: Trad
M: 4/4
L: 1/8
K: Amix
|:"A"EAAG ABcd|~e3c "D"d2 cd|"A"eAAA ABcA|"G"BGEF "G"G2 FG|
"A"EAAG ABcd|~e3c "D"d2 cd|"A"eaaa aged|cA"E"BG "A"A4 :|
|: "G"g2 g"G"a gfef|gfec "D"d2 cd|"A"eAAA ABcA|"G"BGEF G2 FG|
"A"EAAG ABcd|efec "D"d2 cd|"A"eaaa aged|cA"E"BG "A"A4 :|